!!!OTL: DA DROBEN AUF DEM BERGE
!!!ARE: Europa, Mitteleuropa, Deutschland, Sueddeutschland ?
!!!SCT: E0999
!!!YEM: Copyright 1995, estate of Helmut Schaffrath.
**kern
*ICvox
*Ivox
*M3/4
*k[f#]
*G:
{4d
=1
4d
4g
8g
8g
=2
4f#
4f#}
{8f#
8f#
=3
4f#
4d
4f#
=4
4g
4r}
{4g
=5
8g
8g
4b
8b
8b
=6
8dd
8dd
4cc}
{4cc
=7
4cc
4d
4f#
=8
4g
4r}
{4d
=9
2b
8a
8g
=10
4g
4f#}
{4d
=11
2cc
8b
8a
=12
4a
4g}
{4d
=13
2b
8a
8g
=14
4g
4f#}
{4d
=15
2cc
8b
8a
=16
4a
4g}
{4g
=17
4g
4b
4b
=18
4dd
4cc
4cc}
=19
{4cc
4d
4f#
=20
2g}
{4g
=21
4g
4b
4b
=22
4dd
4cc
4cc}
=23
{4cc
4d
4f#
=24
2g}
{4d
=25
4d
4g
4g
=26
2f#}
{4f#
=27
4f#
4d
4f#
=28
2g}
{4d
=29
4d
4g
4g
=30
2f#}
{4cc
=31
4cc
4d
4f#
=32
2g}
{4d
=33
4d
4g
4g
=34
2f#}
{4f#
=35
4f#
4d
4f#
=36
2g}
{4d
=37
4d
4g
4g
=38
2f#}
{4cc
=39
4cc
4d
4f#
=40
2g}
==
!!!AGN: Tanz - Lied, Reigen
!!!ONB: ESAC (Essen Associative Code) Database: ERK2
!!!AMT: simple triple
!!!AIN: vox
!!!EED: Helmut Schaffrath
!!!EEV: 1.0
*-
